modules/themify-icons/icons/flag-alt-2.svg

<?xml version="1.0" encoding="utf-8"?>
<!-- Generated by IcoMoon.io -->
<!DOCTYPE svg PUBLIC "-//W3C//DTD SVG 1.1//EN" "http://www.w3.org/Graphics/SVG/1.1/DTD/svg11.dtd">
<svg version="1.1" xmlns="http://www.w3.org/2000/svg" xmlns:xlink="http://www.w3.org/1999/xlink" width="17" height="17" viewBox="0 0 17 17">
<g>
</g>
	<path d="M15 0v17h-1v-17h1zM4.984 1h8v8h-4.984v2h-7v-8h3.984v-2zM7 9h-2v-5h-3v6h5v-1zM5.984 2v1h0.016v5h5.984v-6h-6z" fill="#000000" />
</svg>

<svg xmlns="http://www.w3.org/2000/svg" width="17" height="17" viewBox="0 0 17 17"><path d="M15 0v17h-1V0h1zM4.984 1h8v8H8v2H1V3h3.984V1zM7 9H5V4H2v6h5V9zM5.984 2v1H6v5h5.984V2h-6z"/></svg>
